**kern	**silbe	**harmony	**phrase	**leadinstrument	**rhyme	**timestamp	**harte
*ICvox	*	*M4/4	*	*	*	*	*M4/4
*VRlead	*	*	*	*	*	*	*
*Hstimme	*	*	*	*	*	*	*
*a:	*	*a:	*a:	*a:	*	*a:	*a:
*M4/4	*	*	*	*	*	*	*
*clefG2	*	*	*	*	*	*	*
r;	.	1r;	.	r	.	0	N.C.
=1	=1	=1	=1	=1	=1	=1	=1
*>Letter>C	*>Letter>C	*>Letter>C	*>Letter>C	*>Letter>C	*>Letter>C	*>Letter>C	*>Letter>C
*>Label>Intro	*>Label>Intro	*>Label>Intro	*>Label>Intro	*>Label>Intro	*>Label>Intro	*>Label>Intro	*>Label>Intro
1r	.	1Am	newline	r	.	0.283	A:min
=2	=2	=2	=2	=2	=2	=2	=2
1r	.	1Am	.	r	.	1.94	A:min/b7
=3	=3	=3	=3	=3	=3	=3	=3
1r	.	1Am	.	r	.	3.598	A:min/6
=4	=4	=4	=4	=4	=4	=4	=4
1r	.	2FMM	.	r	.	5.256	F:maj7
.	.	2EMm	.	r	.	6.084	E:7
=5	=5	=5	=5	=5	=5	=5	=5
1r	.	1Am	newline	r	.	6.913	A:min
=6	=6	=6	=6	=6	=6	=6	=6
1r	.	1Am	.	r	.	8.561	A:min/b7
=7	=7	=7	=7	=7	=7	=7	=7
1r	.	1Am	.	r	.	10.209	A:min/6
=8	=8	=8	=8	=8	=8	=8	=8
1r	.	2FMM	.	r	.	11.857	F:maj7
.	.	2EMm	.	r	.	12.681	E:7
=9	=9	=9	=9	=9	=9	=9	=9
1r	.	1Am	newline	r	.	13.505	A:min
=10	=10	=10	=10	=10	=10	=10	=10
1r	.	1Am	.	r	.	15.134	A:min/b7
=11	=11	=11	=11	=11	=11	=11	=11
1r	.	1Am	.	r	.	16.764	A:min/6
=12	=12	=12	=12	=12	=12	=12	=12
1r	.	2FMM	.	r	.	18.394	F:maj7
.	.	2EMm	.	r	.	19.209	E:7
=13	=13	=13	=13	=13	=13	=13	=13
1r	.	1Am	newline	r	.	20.024	A:min
=14	=14	=14	=14	=14	=14	=14	=14
1r	.	1Am	.	r	.	21.657	A:min/b7
=15	=15	=15	=15	=15	=15	=15	=15
1r	.	1Am	.	r	.	23.29	A:min/6
=16	=16	=16	=16	=16	=16	=16	=16
1r	.	2FMM	.	r	.	24.922	F:maj7
.	.	2EMm	.	r	.	25.739	E:7
=17	=17	=17	=17	=17	=17	=17	=17
*>Letter>A	*>Letter>A	*>Letter>A	*>Letter>A	*>Letter>A	*>Letter>A	*>Letter>A	*>Letter>A
*>Label>Verse	*>Label>Verse	*>Label>Verse	*>Label>Verse	*>Label>Verse	*>Label>Verse	*>Label>Verse	*>Label>Verse
2r	.	1Am	newline	r	.	26.555	A:min
8A	Wai-	.	.	.	.	.	.
4B	-ting	.	.	.	.	.	.
[8c	for	.	.	.	.	.	.
=18	=18	=18	=18	=18	=18	=18	=18
8c]	_	1Am	.	r	.	28.18	A:min/b7
4d	the	.	.	.	.	.	.
4e	break	.	.	.	.	.	.
4g	of	.	.	.	.	.	.
[8a	day.	.	.	.	A	.	.
=19	=19	=19	=19	=19	=19	=19	=19
4.a]	_	1Am	.	r	.	29.805	A:min/6
2r	.	.	.	.	.	.	.
8r	.	.	.	.	.	.	.
=20	=20	=20	=20	=20	=20	=20	=20
1r	.	2FMM	.	r	.	31.43	F:maj7
.	.	2EMm	.	r	.	32.243	E:7
=21	=21	=21	=21	=21	=21	=21	=21
2r	.	1Am	newline	r	.	33.056	A:min
8A	Search-	.	.	.	.	.	.
4B	-ing	.	.	.	.	.	.
[8c	for	.	.	.	.	.	.
=22	=22	=22	=22	=22	=22	=22	=22
8c]	_	1Am	.	r	.	34.68	A:min/b7
4d	some-	.	.	.	.	.	.
4e	-thing	.	.	.	.	.	.
4g	to	.	.	.	.	.	.
[8a	say.	.	.	.	A	.	.
=23	=23	=23	=23	=23	=23	=23	=23
8a]	_	1Am	.	r	.	36.304	A:min/6
4a	_	.	.	.	.	.	.
2r	.	.	.	.	.	.	.
8r	.	.	.	.	.	.	.
=24	=24	=24	=24	=24	=24	=24	=24
1r	.	2FMM	.	r	.	37.929	F:maj7
.	.	2EMm	.	r	.	38.741	E:7
=25	=25	=25	=25	=25	=25	=25	=25
2r	.	1Am	newline	r	.	39.553	A:min
8a	Fla-	.	.	.	.	.	.
4b	-shing	.	.	.	.	.	.
[8cc	lights	.	.	.	.	.	.
=26	=26	=26	=26	=26	=26	=26	=26
8cc]	_	1Am	.	r	.	41.174	A:min/b7
4b	a-	.	.	.	.	.	.
4a	-gainst	.	.	.	.	.	.
4b	the	.	.	.	.	.	.
[8a	sky.	.	.	.	B	.	.
=27	=27	=27	=27	=27	=27	=27	=27
2a]	_	1Am	.	r	.	42.795	A:min/6
2e	_	.	.	.	.	.	.
=28	=28	=28	=28	=28	=28	=28	=28
1r	.	2FMM	.	r	.	44.416	F:maj7
.	.	2EMm	.	r	.	45.227	E:7
=29	=29	=29	=29	=29	=29	=29	=29
2r	.	1Am	newline	r	.	46.037	A:min
8A	Giv-	.	.	.	.	.	.
4B	-ing	.	.	.	.	.	.
[8c	up	.	.	.	.	.	.
=30	=30	=30	=30	=30	=30	=30	=30
8c]	_	1Am	.	r	.	47.667	A:min/b7
4d	I	.	.	.	.	.	.
4e	close	.	.	.	.	.	.
4g	my	.	.	.	.	.	.
[8a	eyes.	.	.	.	B	.	.
=31	=31	=31	=31	=31	=31	=31	=31
8a]	_	1Am	.	r	.	49.297	A:min/6
8.a	_	.	.	.	.	.	.
16g	_	.	.	.	.	.	.
8e	_	.	.	.	.	.	.
2r	.	.	.	.	.	.	.
=32	=32	=32	=32	=32	=32	=32	=32
1r	.	2FMM	.	r	.	50.926	F:maj7
.	.	2EMm	.	r	.	51.741	E:7
=33	=33	=33	=33	=33	=33	=33	=33
*>Letter>B	*>Letter>B	*>Letter>B	*>Letter>B	*>Letter>B	*>Letter>B	*>Letter>B	*>Letter>B
*>Label>Chorus	*>Label>Chorus	*>Label>Chorus	*>Label>Chorus	*>Label>Chorus	*>Label>Chorus	*>Label>Chorus	*>Label>Chorus
2r	.	1FM	newline	r	.	52.556	F:maj
8a	Sit-	.	.	.	.	.	.
4b	-ting	.	.	.	.	.	.
[8cc	cross-	.	.	.	.	.	.
=34	=34	=34	=34	=34	=34	=34	=34
8cc]	_	1FM	.	r	.	54.185	F:maj
4b	-legged	.	.	.	.	.	.
4a	on	.	.	.	.	.	.
4b	the	.	.	.	.	.	.
[8g	floor.	.	.	.	C	.	.
=35	=35	=35	=35	=35	=35	=35	=35
1g_	_	1CM	.	r	.	55.813	C:maj
=36	=36	=36	=36	=36	=36	=36	=36
2g]	_	1CM	.	r	.	57.442	C:maj
2r	.	.	.	.	.	.	.
=37	=37	=37	=37	=37	=37	=37	=37
2r	.	1GM	.	r	.	59.07	G:maj
8g	Twen-	.	.	.	.	.	.
4a	-ty-	.	.	.	.	.	.
[8g	-five	.	.	.	.	.	.
=38	=38	=38	=38	=38	=38	=38	=38
8g]	_	1GM	.	r	.	60.699	G:maj
4f	or	.	.	.	.	.	.
4e	six	.	.	.	.	.	.
4g	to	.	.	.	.	.	.
[8f	four.	.	.	.	C	.	.
=39	=39	=39	=39	=39	=39	=39	=39
1f]	_	1FM	.	r	.	62.328	F:maj
=40	=40	=40	=40	=40	=40	=40	=40
2.a	_	1FM	.	r	.	63.956	F:maj
4r	.	.	.	.	.	.	.
=41	=41	=41	=41	=41	=41	=41	=41
*>Letter>K	*>Letter>K	*>Letter>K	*>Letter>K	*>Letter>K	*>Letter>K	*>Letter>K	*>Letter>K
*>Label>Interlude	*>Label>Interlude	*>Label>Interlude	*>Label>Interlude	*>Label>Interlude	*>Label>Interlude	*>Label>Interlude	*>Label>Interlude
1r	.	1Am	newline	r	.	65.585	A:min
=42	=42	=42	=42	=42	=42	=42	=42
1r	.	1Am	.	r	.	67.211	A:min/b7
=43	=43	=43	=43	=43	=43	=43	=43
1r	.	1Am	.	r	.	68.838	A:min/6
=44	=44	=44	=44	=44	=44	=44	=44
1r	.	2FMM	.	r	.	70.465	F:maj7
.	.	2EMm	.	r	.	71.278	E:7
=45	=45	=45	=45	=45	=45	=45	=45
1r	.	1Am	newline	r	.	72.091	A:min
=46	=46	=46	=46	=46	=46	=46	=46
1r	.	1Am	.	r	.	73.704	A:min/b7
=47	=47	=47	=47	=47	=47	=47	=47
1r	.	1Am	.	r	.	75.317	A:min/6
=48	=48	=48	=48	=48	=48	=48	=48
1r	.	2FMM	.	r	.	76.93	F:maj7
.	.	2EMm	.	r	.	77.736	E:7
=49	=49	=49	=49	=49	=49	=49	=49
*>Letter>A	*>Letter>A	*>Letter>A	*>Letter>A	*>Letter>A	*>Letter>A	*>Letter>A	*>Letter>A
*>Label>Verse	*>Label>Verse	*>Label>Verse	*>Label>Verse	*>Label>Verse	*>Label>Verse	*>Label>Verse	*>Label>Verse
2r	.	1Am	newline	r	.	78.542	A:min
8A	Star-	.	.	.	.	.	.
4B	-ing	.	.	.	.	.	.
[8c	blind-	.	.	.	.	.	.
=50	=50	=50	=50	=50	=50	=50	=50
8c]	_	1Am	.	r	.	80.169	A:min/b7
4d	-ly	.	.	.	.	.	.
4e	in-	.	.	.	.	.	.
4g	-to	.	.	.	.	.	.
[8a	space.	.	.	.	A	.	.
=51	=51	=51	=51	=51	=51	=51	=51
4.a]	_	1Am	.	r	.	81.796	A:min/6
2r	.	.	.	.	.	.	.
8r	.	.	.	.	.	.	.
=52	=52	=52	=52	=52	=52	=52	=52
1r	.	2FMM	.	r	.	83.422	F:maj7
.	.	2EMm	.	r	.	84.236	E:7
=53	=53	=53	=53	=53	=53	=53	=53
2r	.	1Am	newline	r	.	85.049	A:min
8A	Get-	.	.	.	.	.	.
4B	-ting	.	.	.	.	.	.
[8c	up	.	.	.	.	.	.
=54	=54	=54	=54	=54	=54	=54	=54
8c]	_	1Am	.	r	.	86.67	A:min/b7
4d	to	.	.	.	.	.	.
4e	splash	.	.	.	.	.	.
4g	my	.	.	.	.	.	.
[8a	face.	.	.	.	A	.	.
=55	=55	=55	=55	=55	=55	=55	=55
2a]	_	1Am	.	r	.	88.29	A:min/6
2r	.	.	.	.	.	.	.
=56	=56	=56	=56	=56	=56	=56	=56
1r	.	2FMM	.	r	.	89.911	F:maj7
.	.	2EMm	.	r	.	90.721	E:7
=57	=57	=57	=57	=57	=57	=57	=57
2r	.	1Am	newline	r	.	91.531	A:min
8a	Wan-	.	.	.	.	.	.
4b	-ting	.	.	.	.	.	.
[8cc	just	.	.	.	.	.	.
=58	=58	=58	=58	=58	=58	=58	=58
8cc]	_	1Am	.	r	.	93.157	A:min/b7
4b	to	.	.	.	.	.	.
4a	stay	.	.	.	A	.	.
4b	a-	.	.	.	.	.	.
[8a	-wake.	.	.	.	A	.	.
=59	=59	=59	=59	=59	=59	=59	=59
2a]	_	1Am	.	r	.	94.782	A:min/6
2e	_	.	.	.	.	.	.
=60	=60	=60	=60	=60	=60	=60	=60
1r	.	2FMM	.	r	.	96.408	F:maj7
.	.	2EMm	.	r	.	97.221	E:7
=61	=61	=61	=61	=61	=61	=61	=61
2r	.	1Am	newline	r	.	98.033	A:min
8A	Won-	.	.	.	.	.	.
4B	-dering	.	.	.	.	.	.
[8c	how	.	.	.	.	.	.
=62	=62	=62	=62	=62	=62	=62	=62
8c]	_	1Am	.	r	.	99.665	A:min/b7
4d	much	.	.	.	.	.	.
4e	I	.	.	.	.	.	.
4g	can	.	.	.	.	.	.
[8a	take.	.	.	.	A	.	.
=63	=63	=63	=63	=63	=63	=63	=63
8a]	_	1Am	.	r	.	101.296	A:min/6
8.a	_	.	.	.	.	.	.
16g	_	.	.	.	.	.	.
8e	_	.	.	.	.	.	.
2r	.	.	.	.	.	.	.
=64	=64	=64	=64	=64	=64	=64	=64
1r	.	2FMM	.	r	.	102.927	F:maj7
.	.	2EMm	.	r	.	103.743	E:7
=65	=65	=65	=65	=65	=65	=65	=65
*>Letter>B	*>Letter>B	*>Letter>B	*>Letter>B	*>Letter>B	*>Letter>B	*>Letter>B	*>Letter>B
*>Label>Chorus	*>Label>Chorus	*>Label>Chorus	*>Label>Chorus	*>Label>Chorus	*>Label>Chorus	*>Label>Chorus	*>Label>Chorus
2r	.	1FM	newline	r	.	104.559	F:maj
8a	Shoudl	.	.	.	.	.	.
4b	I	.	.	.	.	.	.
[8cc	try	.	.	.	.	.	.
=66	=66	=66	=66	=66	=66	=66	=66
8cc]	_	1FM	.	r	.	106.182	F:maj
4b	to	.	.	.	.	.	.
4a	do	.	.	.	.	.	.
4b	some	.	.	.	.	.	.
[8g	more?.	.	.	.	C	.	.
=67	=67	=67	=67	=67	=67	=67	=67
1g_	_	1CM	.	r	.	107.805	C:maj
=68	=68	=68	=68	=68	=68	=68	=68
2g]	_	1CM	.	r	.	109.427	C:maj
2r	.	.	.	.	.	.	.
=69	=69	=69	=69	=69	=69	=69	=69
2r	.	1GM	.	r	.	111.05	G:maj
8g	Twen-	.	.	.	.	.	.
4a	-ty-	.	.	.	.	.	.
[8g	-five	.	.	.	.	.	.
=70	=70	=70	=70	=70	=70	=70	=70
8g]	_	1GM	.	r	.	112.673	G:maj
4f	or	.	.	.	.	.	.
4e	six	.	.	.	.	.	.
4g	to	.	.	.	.	.	.
[8f	four	.	.	.	C	.	.
=71	=71	=71	=71	=71	=71	=71	=71
2f]	_	1FM	.	r	.	114.296	F:maj
2a	_	.	.	.	.	.	.
=72	=72	=72	=72	=72	=72	=72	=72
[1cc	_	1FM	.	r	.	115.919	F:maj
=73	=73	=73	=73	=73	=73	=73	=73
*>Letter>D	*>Letter>D	*>Letter>D	*>Letter>D	*>Letter>D	*>Letter>D	*>Letter>D	*>Letter>D
*>Label>Instrumental	*>Label>Instrumental	*>Label>Instrumental	*>Label>Instrumental	*>Label>Instrumental	*>Label>Instrumental	*>Label>Instrumental	*>Label>Instrumental
8cc]	_	1Am	newline	r	.	117.542	A:min
4a	yeah.	.	.	.	.	.	.
2r	.	.	.	.	.	.	.
8r	.	.	.	.	.	.	.
=74	=74	=74	=74	=74	=74	=74	=74
1r	.	1Am	.	r	.	119.167	A:min/b7
=75	=75	=75	=75	=75	=75	=75	=75
1r	.	1Am	.	r	.	120.793	A:min/6
=76	=76	=76	=76	=76	=76	=76	=76
1r	.	2FMM	.	r	.	122.418	F:maj7
.	.	2EMm	.	r	.	123.231	E:7
=77	=77	=77	=77	=77	=77	=77	=77
1r	.	1Am	newline	r	.	124.043	A:min
=78	=78	=78	=78	=78	=78	=78	=78
1r	.	1Am	.	r	.	125.649	A:min/b7
=79	=79	=79	=79	=79	=79	=79	=79
1r	.	1Am	.	r	.	127.254	A:min/6
=80	=80	=80	=80	=80	=80	=80	=80
1r	.	2FMM	.	r	.	128.86	F:maj7
.	.	2EMm	.	r	.	129.663	E:7
=81	=81	=81	=81	=81	=81	=81	=81
1r	.	1Am	newline	r	.	130.466	A:min
=82	=82	=82	=82	=82	=82	=82	=82
1r	.	1Am	.	r	.	132.095	A:min/b7
=83	=83	=83	=83	=83	=83	=83	=83
1r	.	1Am	.	r	.	133.725	A:min/6
=84	=84	=84	=84	=84	=84	=84	=84
1r	.	2FMM	.	r	.	135.355	F:maj7
.	.	2EMm	.	r	.	136.17	E:7
=85	=85	=85	=85	=85	=85	=85	=85
1r	.	1Am	newline	r	.	136.985	A:min
=86	=86	=86	=86	=86	=86	=86	=86
1r	.	1Am	.	r	.	138.598	A:min/b7
=87	=87	=87	=87	=87	=87	=87	=87
1r	.	1Am	.	r	.	140.212	A:min/6
=88	=88	=88	=88	=88	=88	=88	=88
1r	.	2FMM	.	r	.	141.825	F:maj7
.	.	2EMm	.	r	.	142.631	E:7
=89	=89	=89	=89	=89	=89	=89	=89
1r	.	1Am	newline	r	.	143.438	A:min
=90	=90	=90	=90	=90	=90	=90	=90
1r	.	1Am	.	r	.	145.05	A:min/b7
=91	=91	=91	=91	=91	=91	=91	=91
1r	.	1Am	.	r	.	146.662	A:min/6
=92	=92	=92	=92	=92	=92	=92	=92
1r	.	2FMM	.	r	.	148.274	F:maj7
.	.	2EMm	.	r	.	149.08	E:7
=93	=93	=93	=93	=93	=93	=93	=93
1r	.	1Am	newline	r	.	149.886	A:min
=94	=94	=94	=94	=94	=94	=94	=94
1r	.	1Am	.	r	.	151.488	A:min/b7
=95	=95	=95	=95	=95	=95	=95	=95
1r	.	1Am	.	r	.	153.089	A:min/6
=96	=96	=96	=96	=96	=96	=96	=96
1r	.	2FMM	.	r	.	154.691	F:maj7
.	.	2EMm	.	r	.	155.491	E:7
=97	=97	=97	=97	=97	=97	=97	=97
1r	.	1Am	newline	r	.	156.292	A:min
=98	=98	=98	=98	=98	=98	=98	=98
1r	.	1Am	.	r	.	157.912	A:min/b7
=99	=99	=99	=99	=99	=99	=99	=99
1r	.	1Am	.	r	.	159.533	A:min/6
=100	=100	=100	=100	=100	=100	=100	=100
1r	.	2FMM	.	r	.	161.153	F:maj7
.	.	2EMm	.	r	.	161.963	E:7
=101	=101	=101	=101	=101	=101	=101	=101
1r	.	1Am	newline	r	.	162.773	A:min
=102	=102	=102	=102	=102	=102	=102	=102
1r	.	1Am	.	r	.	164.396	A:min/b7
=103	=103	=103	=103	=103	=103	=103	=103
1r	.	1Am	.	r	.	166.018	A:min/6
=104	=104	=104	=104	=104	=104	=104	=104
1r	.	2FMM	.	r	.	167.641	F:maj7
.	.	2EMm	.	r	.	168.452	E:7
=105	=105	=105	=105	=105	=105	=105	=105
1r	.	1Am	newline	r	.	169.263	A:min
=106	=106	=106	=106	=106	=106	=106	=106
1r	.	1Am	.	r	.	170.864	A:min/b7
=107	=107	=107	=107	=107	=107	=107	=107
1r	.	1Am	.	r	.	172.465	A:min/6
=108	=108	=108	=108	=108	=108	=108	=108
1r	.	2FMM	.	r	.	174.066	F:maj7
.	.	2EMm	.	r	.	174.866	E:7
=109	=109	=109	=109	=109	=109	=109	=109
1r	.	1Am	newline	r	.	175.667	A:min
=110	=110	=110	=110	=110	=110	=110	=110
1r	.	1Am	.	r	.	177.261	A:min/b7
=111	=111	=111	=111	=111	=111	=111	=111
1r	.	1Am	.	r	.	178.856	A:min/6
=112	=112	=112	=112	=112	=112	=112	=112
1r	.	2FMM	.	r	.	180.45	F:maj7
.	.	2EMm	.	r	.	181.247	E:7
=113	=113	=113	=113	=113	=113	=113	=113
1r	.	1Am	newline	r	.	182.044	A:min
=114	=114	=114	=114	=114	=114	=114	=114
1r	.	1Am	.	r	.	183.631	A:min/b7
=115	=115	=115	=115	=115	=115	=115	=115
1r	.	1Am	.	r	.	185.217	A:min/6
=116	=116	=116	=116	=116	=116	=116	=116
1r	.	2FMM	.	r	.	186.803	F:maj7
.	.	2EMm	.	r	.	187.597	E:7
=117	=117	=117	=117	=117	=117	=117	=117
1r	.	1Am	newline	r	.	188.39	A:min
=118	=118	=118	=118	=118	=118	=118	=118
1r	.	1Am	.	r	.	190.001	A:min/b7
=119	=119	=119	=119	=119	=119	=119	=119
1r	.	1Am	.	r	.	191.612	A:min/6
=120	=120	=120	=120	=120	=120	=120	=120
1r	.	2FMM	.	r	.	193.223	F:maj7
.	.	2EMm	.	r	.	194.028	E:7
=121	=121	=121	=121	=121	=121	=121	=121
*>Letter>H	*>Letter>H	*>Letter>H	*>Letter>H	*>Letter>H	*>Letter>H	*>Letter>H	*>Letter>H
*>Label>Preverse	*>Label>Preverse	*>Label>Preverse	*>Label>Preverse	*>Label>Preverse	*>Label>Preverse	*>Label>Preverse	*>Label>Preverse
1r	.	1Am	newline	r	.	194.833	A:min
=122	=122	=122	=122	=122	=122	=122	=122
1r	.	1Am	.	r	.	196.474	A:min/b7
=123	=123	=123	=123	=123	=123	=123	=123
1r	.	1Am	.	r	.	198.115	A:min/6
=124	=124	=124	=124	=124	=124	=124	=124
1r	.	2FMM	.	r	.	199.756	F:maj7
.	.	2EMm	.	r	.	200.576	E:7
=125	=125	=125	=125	=125	=125	=125	=125
1r	.	1Am	newline	r	.	201.397	A:min
=126	=126	=126	=126	=126	=126	=126	=126
1r	.	1Am	.	r	.	203.014	A:min/b7
=127	=127	=127	=127	=127	=127	=127	=127
1r	.	1Am	.	r	.	204.631	A:min/6
=128	=128	=128	=128	=128	=128	=128	=128
1r	.	2FMM	.	r	.	206.249	F:maj7
.	.	2EMm	.	r	.	207.058	E:7
=129	=129	=129	=129	=129	=129	=129	=129
1r	.	1Am	newline	r	.	207.866	A:min
=130	=130	=130	=130	=130	=130	=130	=130
1r	.	1Am	.	r	.	209.485	A:min/b7
=131	=131	=131	=131	=131	=131	=131	=131
1r	.	1Am	.	r	.	211.103	A:min/6
=132	=132	=132	=132	=132	=132	=132	=132
1r	.	2FMM	.	r	.	212.721	F:maj7
.	.	2EMm	.	r	.	213.53	E:7
=133	=133	=133	=133	=133	=133	=133	=133
1r	.	1Am	newline	r	.	214.339	A:min
=134	=134	=134	=134	=134	=134	=134	=134
1r	.	1Am	.	r	.	215.95	A:min/b7
=135	=135	=135	=135	=135	=135	=135	=135
1r	.	1Am	.	r	.	217.562	A:min/6
=136	=136	=136	=136	=136	=136	=136	=136
1r	.	2FMM	.	r	.	219.173	F:maj7
.	.	2EMm	.	r	.	219.979	E:7
=137	=137	=137	=137	=137	=137	=137	=137
*>Letter>A	*>Letter>A	*>Letter>A	*>Letter>A	*>Letter>A	*>Letter>A	*>Letter>A	*>Letter>A
*>Label>Verse	*>Label>Verse	*>Label>Verse	*>Label>Verse	*>Label>Verse	*>Label>Verse	*>Label>Verse	*>Label>Verse
2r	.	1Am	newline	r	.	220.785	A:min
8A	Fee-	.	.	.	.	.	.
4B	-ling	.	.	.	.	.	.
[8c	like	.	.	.	.	.	.
=138	=138	=138	=138	=138	=138	=138	=138
8c]	_	1Am	.	r	.	222.405	A:min/b7
4d	I	.	.	.	.	.	.
4e	ought	.	.	.	.	.	.
4g	to	.	.	.	.	.	.
[8a	sleep.	.	.	.	D	.	.
=139	=139	=139	=139	=139	=139	=139	=139
8a]	_	1Am	.	r	.	224.025	A:min/6
8.a	_	.	.	.	.	.	.
16g	_	.	.	.	.	.	.
8e	_	.	.	.	.	.	.
2r	.	.	.	.	.	.	.
=140	=140	=140	=140	=140	=140	=140	=140
1r	.	2FMM	.	r	.	225.645	F:maj7
.	.	2EMm	.	r	.	226.455	E:7
=141	=141	=141	=141	=141	=141	=141	=141
2r	.	1Am	newline	r	.	227.265	A:min
8A	Spin-	.	.	.	.	.	.
4B	-ning	.	.	.	.	.	.
[8c	room	.	.	.	.	.	.
=142	=142	=142	=142	=142	=142	=142	=142
8c]	_	1Am	.	r	.	228.871	A:min/b7
4d	is	.	.	.	.	.	.
4e	sink-	.	.	.	.	.	.
4g	-ing	.	.	.	.	.	.
[8a	deep.	.	.	.	D	.	.
=143	=143	=143	=143	=143	=143	=143	=143
8a]	_	1Am	.	r	.	230.476	A:min/6
8.a	_	.	.	.	.	.	.
16g	_	.	.	.	.	.	.
8e	_	.	.	.	.	.	.
2r	.	.	.	.	.	.	.
=144	=144	=144	=144	=144	=144	=144	=144
1r	.	2FMM	.	r	.	232.081	F:maj7
.	.	2EMm	.	r	.	232.884	E:7
=145	=145	=145	=145	=145	=145	=145	=145
2r	.	1Am	newline	r	.	233.686	A:min
8a	Sear-	.	.	.	.	.	.
4b	-ching	.	.	.	.	.	.
[8cc	for	.	.	.	.	.	.
=146	=146	=146	=146	=146	=146	=146	=146
8cc]	_	1Am	.	r	.	235.29	A:min/b7
4b	some-	.	.	.	.	.	.
4a	-thing	.	.	.	.	.	.
4b	to	.	.	.	.	.	.
[8a	say.	.	.	.	A	.	.
=147	=147	=147	=147	=147	=147	=147	=147
2a]	_	1Am	.	r	.	236.894	A:min/6
2e	_	.	.	.	.	.	.
=148	=148	=148	=148	=148	=148	=148	=148
1r	.	2FMM	.	r	.	238.498	F:maj7
.	.	2EMm	.	r	.	239.3	E:7
=149	=149	=149	=149	=149	=149	=149	=149
2r	.	1Am	newline	r	.	240.102	A:min
8A	Wait-	.	.	.	.	.	.
4B	-ing	.	.	.	.	.	.
[8c	for	.	.	.	.	.	.
=150	=150	=150	=150	=150	=150	=150	=150
8c]	_	1Am	.	r	.	241.713	A:min/b7
4d	the	.	.	.	.	.	.
4e	break	.	.	.	.	.	.
4g	of	.	.	.	.	.	.
[8a	day.	.	.	.	A	.	.
=151	=151	=151	=151	=151	=151	=151	=151
8a]	_	1Am	.	r	.	243.324	A:min/6
8.a	_	.	.	.	.	.	.
16g	_	.	.	.	.	.	.
8e	_	.	.	.	.	.	.
2r	.	.	.	.	.	.	.
=152	=152	=152	=152	=152	=152	=152	=152
6cc	Hoo.	2FMM	.	r	.	244.936	F:maj7
6a	_	.	.	.	.	.	.
6a	_	.	.	.	.	.	.
4a	_	2EMm	.	r	.	245.742	E:7
16a	_	.	.	.	.	.	.
16g	_	.	.	.	.	.	.
8e	_	.	.	.	.	.	.
=153	=153	=153	=153	=153	=153	=153	=153
*>Letter>B	*>Letter>B	*>Letter>B	*>Letter>B	*>Letter>B	*>Letter>B	*>Letter>B	*>Letter>B
*>Label>Chorus	*>Label>Chorus	*>Label>Chorus	*>Label>Chorus	*>Label>Chorus	*>Label>Chorus	*>Label>Chorus	*>Label>Chorus
2r	.	1FM	newline	r	.	246.547	F:maj
8a	Twen-	.	.	.	.	.	.
4b	-ty-	.	.	.	.	.	.
[8cc	-five	.	.	.	.	.	.
=154	=154	=154	=154	=154	=154	=154	=154
8cc]	_	1FM	.	r	.	248.168	F:maj
4b	or	.	.	.	.	.	.
4a	six	.	.	.	.	.	.
4b	to	.	.	.	.	.	.
[8g	four.	.	.	.	C	.	.
=155	=155	=155	=155	=155	=155	=155	=155
1g_	_	1CM	.	r	.	249.788	C:maj
=156	=156	=156	=156	=156	=156	=156	=156
2g]	_	1CM	.	r	.	251.408	C:maj
2r	.	.	.	.	.	.	.
=157	=157	=157	=157	=157	=157	=157	=157
2r	.	1GM	.	r	.	253.029	G:maj
8g	Twen-	.	.	.	.	.	.
4a	-ty-	.	.	.	.	.	.
[8g	-five	.	.	.	.	.	.
=158	=158	=158	=158	=158	=158	=158	=158
8g]	_	1GM	.	r	.	254.649	G:maj
4f	or	.	.	.	.	.	.
4e	six	.	.	.	.	.	.
4g	to	.	.	.	.	.	.
[8f	four.	.	.	.	C	.	.
=159	=159	=159	=159	=159	=159	=159	=159
2f]	_	1FM	.	r	.	256.269	F:maj
2a	_	.	.	.	.	.	.
=160	=160	=160	=160	=160	=160	=160	=160
[1cc	All-	1FM	.	r	.	257.89	F:maj
=161	=161	=161	=161	=161	=161	=161	=161
*>Letter>J	*>Letter>J	*>Letter>J	*>Letter>J	*>Letter>J	*>Letter>J	*>Letter>J	*>Letter>J
*>Label>Outro	*>Label>Outro	*>Label>Outro	*>Label>Outro	*>Label>Outro	*>Label>Outro	*>Label>Outro	*>Label>Outro
4cc]	_	1Am	newline	r	.	259.51	A:min
4a	-right.	.	.	.	.	.	.
2r	.	.	.	.	.	.	.
=162	=162	=162	=162	=162	=162	=162	=162
1r	.	1Am	.	r	.	261.121	A:min/b7
=163	=163	=163	=163	=163	=163	=163	=163
1r	.	1Am	.	r	.	262.733	A:min/6
=164	=164	=164	=164	=164	=164	=164	=164
1r	.	2FMM	.	r	.	264.344	F:maj7
.	.	2EMm	.	r	.	265.15	E:7
=165	=165	=165	=165	=165	=165	=165	=165
1r	.	1Am	newline	r	.	265.956	A:min
=166	=166	=166	=166	=166	=166	=166	=166
1r	.	1Am	.	r	.	267.559	A:min/b7
=167	=167	=167	=167	=167	=167	=167	=167
1r	.	1Am	.	r	.	269.162	A:min/6
=168	=168	=168	=168	=168	=168	=168	=168
1r	.	2FMM	.	r	.	270.766	F:maj7
.	.	2EMm	.	r	.	271.567	E:7
=169	=169	=169	=169	=169	=169	=169	=169
1r	.	1Dm	newline	r	.	272.369	D:min(9)
=170	=170	=170	=170	=170	=170	=170	=170
1r	.	1Cm	.	r	.	274.592	C:min(9)
=171	=171	=171	=171	=171	=171	=171	=171
1r	.	1BMm	.	r	.	276.814	B:7(b9,b13)
=172	=172	=172	=172	=172	=172	=172	=172
1r	.	1GMm	.	r	.	279.037	G:7/b3
=173	=173	=173	=173	=173	=173	=173	=173
1r	.	1BM	newline	r	.	281.26	B:maj/b7
=174	=174	=174	=174	=174	=174	=174	=174
1r	.	1BM	.	r	.	283.488	B:maj/b7
=175	=175	=175	=175	=175	=175	=175	=175
1r	.	1BM	.	r	.	285.715	B:maj/b7
r;	.	1r;	.	r	.	288.222	N.C.
r;	.	1r;	.	r	.	290.017	N.C.
*-	*-	*-	*-	*-	*-	*-	*-
!!!BillboardChartDate: 1970/08/08, 1970/08/29, 1970/09/05
!!!BillboardPeak: 4, 4, 4
!!!BillboardWeeksOnChart: 20, 20, 20
!!!COC: Chicago
!!!ENC: Nathaniel Condit-Schultz
!!!EST: Awating manual error checking and editing.
!!!OTL: 25 Or 6 To 4
!!!RDF**chordsym: original McGill chord annotation + (implied pitch class set, with bass pitch in first position)
!!!RDF**harmony: **recip + pitch class of root + harmonic quality
!!!RDF**leadinstrument: original McGill primary instrumentation annotation
!!!RDF**phrase: newline = linebreak in original McGill transcription
!!!RDF**timestamp: McGill audio timestamp in seconds
!!!RDT: 2017/01/12/
!!!SampleActualRank: 27, 10,  6
!!!SampleID#: 176, 292, 1227
!!!SampleTargetRank: 26, 10,  5
